X:1
T:Title
%%score { ( 1 2 ) | 3 }
L:1/8
Q:1/4=100
M:6/8
K:G
V:1 treble nm="Grand Piano"
V:2 treble 
V:3 bass 
V:1
 B6 | [B,E][B,D][_B,^C] [=B,D]3 | c6 |[M:5/8] ED^C D2 |[M:1/8] D |[M:3/4] [DG]2 A B2 c | %6
w: C.~Harold~Lowden||||||
 d3 [Ec]2 [Ec] | B2 GF GA | [B,DG]6 |] %9
w: |||
V:2
 D2 D D2 [B,D] | x6 | D2 D D2 D |[M:5/8] x5 |[M:1/8] x |[M:3/4] x6 | x6 | x6 | x6 |] %9
V:3
 [G,,G,]2 [G,,G,] [G,,G,]2 [G,,G,] | [G,,G,][G,,G,][G,,G,] [G,,G,]3 | %2
 [A,,F,]2 [A,,F,] [A,,F,]2 [D,F,C] |[M:5/8] [D,F,C][D,F,C][D,F,] [D,F,C]2 |[M:1/8] [C,F,] | %5
[M:3/4] [B,,G,]2 [D,F,D] [G,D]2 [G,A,D] | [G,B,D]3 [C,G,]2 [C,G,] | %7
 [D,G,D]2 [D,B,D][D,A,D] [D,B,D][D,CD] | [G,,G,]6 |] %9

